svg/fluentui-system-icons/ic_fluent_checkmark_square_20_filled.svg

<svg width="20" height="20" viewBox="0 0 20 20" fill="none" xmlns="http://www.w3.org/2000/svg">
<path d="M6 3C4.34315 3 3 4.34315 3 6V14C3 15.6569 4.34315 17 6 17H14C15.6569 17 17 15.6569 17 14V6C17 4.34315 15.6569 3 14 3H6ZM13.3536 8.35355L9.35355 12.3536C9.15829 12.5488 8.84171 12.5488 8.64645 12.3536L6.64645 10.3536C6.45118 10.1583 6.45118 9.84171 6.64645 9.64645C6.84171 9.45118 7.15829 9.45118 7.35355 9.64645L9 11.2929L12.6464 7.64645C12.8417 7.45118 13.1583 7.45118 13.3536 7.64645C13.5488 7.84171 13.5488 8.15829 13.3536 8.35355Z" fill="#212121"/>
</svg>

<svg xmlns="http://www.w3.org/2000/svg" width="20" height="20"><path d="M6 3a3 3 0 0 0-3 3v8a3 3 0 0 0 3 3h8a3 3 0 0 0 3-3V6a3 3 0 0 0-3-3H6Zm7.354 5.354-4 4a.5.5 0 0 1-.708 0l-2-2a.5.5 0 0 1 .708-.708L9 11.293l3.646-3.647a.5.5 0 0 1 .708.708Z"/></svg>
